apps/www/public/images/logos/publicity/loops.svg

<svg width="126" height="60" viewBox="0 0 126 60" fill="none" xmlns="http://www.w3.org/2000/svg">
<path d="M23.783 18.9313H20.5384C17.7756 18.9345 15.1269 20.0337 13.1736 21.9875C11.2202 23.9413 10.1218 26.5902 10.1191 29.353C10.1224 32.1153 11.2212 34.7636 13.1745 36.7169C15.1277 38.6702 17.776 39.769 20.5384 39.7722H23.7953C26.5581 39.7696 29.207 38.6711 31.1608 36.7178C33.1146 34.7644 34.2138 32.1158 34.217 29.353C34.2144 26.5876 33.1139 23.9365 31.1573 21.9823C29.2008 20.028 26.5483 18.9306 23.783 18.9313ZM11.4086 29.353C11.4086 26.9336 12.3697 24.6133 14.0805 22.9025C15.7913 21.1917 18.1116 20.2306 20.531 20.2306C21.0406 20.2306 21.5495 20.2725 22.0522 20.3563C24.1804 20.7083 26.1138 21.8064 27.5061 23.454C28.8984 25.1016 29.6587 27.191 29.6509 29.348C29.6484 30.7332 29.1564 32.073 28.2617 33.1305C27.3671 34.188 26.1274 34.8952 24.7618 35.1272C25.6715 34.4631 26.4114 33.5934 26.9212 32.5892C27.4311 31.5849 27.6965 30.4743 27.6958 29.348C27.6985 27.7591 27.1719 26.2144 26.199 24.958C25.2262 23.7017 23.8625 22.8052 22.3234 22.4101C21.738 22.2588 21.1357 22.1826 20.531 22.1833C18.6339 22.1891 16.8165 22.9464 15.4764 24.2892C14.1364 25.632 13.383 27.451 13.381 29.348C13.3762 31.1085 13.8186 32.8413 14.6669 34.3839C15.5152 35.9265 16.7415 37.2283 18.2307 38.1672C16.2816 37.6554 14.5565 36.5135 13.324 34.9193C12.0914 33.3251 11.4206 31.3681 11.416 29.353H11.4086ZM22.1558 23.7242C23.3767 24.0758 24.4501 24.8152 25.2137 25.8306C25.9774 26.8461 26.39 28.0824 26.389 29.353C26.3894 30.6231 25.9766 31.8589 25.213 32.8738C24.4493 33.8888 23.3763 34.6278 22.1558 34.9793C20.9352 34.6278 19.8622 33.8888 19.0985 32.8738C18.3349 31.8589 17.9221 30.6231 17.9225 29.353C17.9216 28.0824 18.3341 26.8461 19.0978 25.8306C19.8615 24.8152 20.9348 24.0758 22.1558 23.7242ZM23.783 38.4704H23.746C23.2504 38.4677 22.7557 38.4257 22.2667 38.3447C20.1912 38.0005 18.2997 36.9461 16.9155 35.3618C15.5313 33.7775 14.7404 31.7616 14.6779 29.6587V29.353C14.6794 27.9675 15.1711 26.6273 16.0659 25.5696C16.9607 24.5119 18.2009 23.8049 19.567 23.5738C18.6569 24.2377 17.9165 25.1072 17.4062 26.1115C16.8959 27.1158 16.6301 28.2265 16.6305 29.353C16.6283 30.9416 17.1551 32.4857 18.128 33.7415C19.1008 34.9974 20.4642 35.8935 22.0029 36.2885C22.588 36.4408 23.1905 36.5173 23.7953 36.5153C25.6945 36.5133 27.5154 35.7582 28.8585 34.4155C30.2017 33.0728 30.9575 31.2522 30.9601 29.353C30.9656 27.5924 30.5234 25.8594 29.6751 24.3166C28.8267 22.7739 27.6001 21.4722 26.1104 20.5339C28.059 21.0463 29.7832 22.1894 31.0137 23.7848C32.2443 25.3802 32.912 27.3381 32.9128 29.353C32.9121 30.5511 32.6754 31.7374 32.2162 32.8441C31.757 33.9508 31.0843 34.9562 30.2365 35.8028C29.3887 36.6495 28.3824 37.3209 27.2751 37.7786C26.1678 38.2363 24.9812 38.4714 23.783 38.4704Z" fill="#7E7E7E"/>
<path d="M55.0777 37.9551H40.2378V36.2811C42.0672 35.9729 42.4272 35.3294 42.4272 34.7105V24.2247C42.4272 23.0413 42.0672 22.5506 40.2378 22.4224V20.7484H49.5648V22.4224C47.7354 22.5506 47.3754 23.0413 47.3754 24.2247V35.3195C47.3754 35.9359 47.5554 36.3748 49.1013 36.3748H50.7754C51.7271 36.3748 52.8612 35.9112 53.66 33.3866H55.3341L55.0777 37.9551ZM56.4165 31.6434C56.4165 27.4718 59.4318 24.38 63.707 24.38C68.2164 24.38 70.8175 27.42 70.8175 31.1281C70.8175 35.2776 67.7529 38.3176 63.5541 38.3176C58.9683 38.3176 56.4165 35.354 56.4165 31.6434ZM65.9752 32.5976C65.9752 28.5024 64.5576 26.0541 63.167 26.0541C61.8529 26.0541 61.313 27.7036 61.313 30.0729C61.313 34.247 62.7553 36.6435 64.1187 36.6435C65.4106 36.6435 65.9752 35.0187 65.9752 32.5976ZM72.4152 31.6434C72.4152 27.4718 75.4305 24.38 79.7057 24.38C84.2151 24.38 86.8162 27.42 86.8162 31.1281C86.8162 35.2776 83.7516 38.3176 79.5503 38.3176C74.9669 38.3176 72.4152 35.354 72.4152 31.6434ZM81.9739 32.5976C81.9739 28.5024 80.5563 26.0541 79.1657 26.0541C77.8516 26.0541 77.3092 27.7036 77.3092 30.0729C77.3092 34.247 78.754 36.6435 80.1174 36.6435C81.4069 36.6435 81.9739 35.0187 81.9739 32.5976ZM102.719 30.9235C102.719 35.4305 99.9894 38.32 96.0471 38.32C95.2518 38.3346 94.462 38.1852 93.727 37.8812V39.787C93.727 40.7412 94.1141 41.1283 95.8671 41.3847V43.0686H87.4424V41.3945C88.7812 41.0863 88.9365 40.751 88.9365 39.7969V28.4555C88.9365 27.7849 88.7048 27.3978 87.8542 27.0132L87.4424 26.8332V25.492L92.6964 24.385H93.727V26.0344C94.0527 25.5184 94.5062 25.0953 95.0436 24.8063C95.581 24.5173 96.184 24.3721 96.7941 24.385C100.889 24.38 102.719 27.5359 102.719 30.9235ZM97.7729 31.8505C97.7729 29.1705 97.0333 26.853 95.2482 26.853C94.4741 26.853 94.3458 26.8012 93.727 27.2647V32.4423C93.727 35.5094 94.2201 36.4117 95.5564 36.4117C96.7941 36.4117 97.7729 34.8905 97.7729 31.8505ZM115.17 25.8988L112.8 29.1459C111.666 26.8776 110.581 25.9259 109.297 25.9259C108.523 25.9259 107.519 26.3894 107.519 27.1883C107.519 29.9003 115.581 28.1399 115.428 34.1188C115.35 36.2811 113.264 38.3102 109.657 38.3102C106.513 38.3102 103.887 36.7372 103.246 36.1701L106.03 33.2608C107.576 35.6819 108.838 36.7643 110.073 36.7643C110.717 36.7643 111.851 36.4808 111.878 35.2184C111.878 32.3067 103.917 34.6514 103.942 28.8081C103.942 26.0517 106.235 24.3702 109.893 24.3702C112.773 24.38 114.63 25.3835 115.17 25.8988Z" fill="#7E7E7E"/>
</svg>

<svg xmlns="http://www.w3.org/2000/svg" width="126" height="60" fill="none" viewBox="0 0 126 60"><path fill="#7e7e7e" d="M23.783 18.931h-3.245A10.43 10.43 0 0 0 10.12 29.353a10.43 10.43 0 0 0 10.42 10.42h3.256a10.43 10.43 0 0 0 10.422-10.42 10.43 10.43 0 0 0-10.434-10.422M11.409 29.353a9.122 9.122 0 0 1 10.643-8.997 9.08 9.08 0 0 1 7.599 8.992 5.87 5.87 0 0 1-4.89 5.78 7.15 7.15 0 0 0 2.935-5.78 7.15 7.15 0 0 0-12.22-5.059 7.17 7.17 0 0 0-2.095 5.059 10.39 10.39 0 0 0 4.85 8.82 9.134 9.134 0 0 1-6.815-8.815zm10.747-5.629a5.85 5.85 0 0 1 4.233 5.629 5.85 5.85 0 0 1-4.233 5.626 5.85 5.85 0 0 1-4.233-5.626 5.85 5.85 0 0 1 4.233-5.629m1.627 14.746h-.037a9.4 9.4 0 0 1-1.48-.125 9.08 9.08 0 0 1-7.588-8.686v-.306a5.87 5.87 0 0 1 4.889-5.78 7.15 7.15 0 0 0-2.936 5.78 7.15 7.15 0 0 0 5.372 6.935 7.172 7.172 0 0 0 8.957-6.935 10.39 10.39 0 0 0-4.85-8.82 9.12 9.12 0 0 1 6.803 8.82 9.123 9.123 0 0 1-9.13 9.117M55.078 37.955h-14.84v-1.674c1.83-.308 2.19-.952 2.19-1.57V24.225c0-1.184-.36-1.674-2.19-1.803v-1.674h9.327v1.674c-1.83.129-2.19.62-2.19 1.803v11.094c0 .617.18 1.056 1.726 1.056h1.674c.952 0 2.086-.464 2.885-2.988h1.674zm1.338-6.312c0-4.171 3.016-7.263 7.291-7.263 4.51 0 7.11 3.04 7.11 6.748 0 4.15-3.064 7.19-7.263 7.19-4.586 0-7.138-2.964-7.138-6.675m9.56.955c0-4.096-1.418-6.544-2.809-6.544-1.314 0-1.854 1.65-1.854 4.019 0 4.174 1.442 6.57 2.806 6.57 1.292 0 1.856-1.624 1.856-4.045m6.44-.955c0-4.171 3.014-7.263 7.29-7.263 4.51 0 7.11 3.04 7.11 6.748 0 4.15-3.064 7.19-7.266 7.19-4.583 0-7.135-2.964-7.135-6.675m9.558.955c0-4.096-1.418-6.544-2.808-6.544-1.314 0-1.857 1.65-1.857 4.019 0 4.174 1.445 6.57 2.808 6.57 1.29 0 1.857-1.624 1.857-4.045m20.745-1.674c0 4.507-2.73 7.396-6.672 7.396a5.8 5.8 0 0 1-2.32-.439v1.906c0 .954.387 1.341 2.14 1.598v1.684h-8.425v-1.675c1.34-.308 1.495-.643 1.495-1.597V28.456c0-.671-.232-1.058-1.083-1.443l-.412-.18v-1.341l5.254-1.107h1.031v1.65a3.54 3.54 0 0 1 3.067-1.65c4.095-.005 5.925 3.15 5.925 6.538m-4.946.927c0-2.68-.74-4.998-2.525-4.998-.774 0-.902-.052-1.521.412v5.177c0 3.067.493 3.97 1.83 3.97 1.237 0 2.216-1.521 2.216-4.561m17.397-5.952-2.37 3.247c-1.134-2.268-2.219-3.22-3.503-3.22-.774 0-1.778.463-1.778 1.262 0 2.712 8.062.952 7.909 6.93-.078 2.163-2.164 4.192-5.771 4.192-3.144 0-5.77-1.573-6.411-2.14l2.784-2.91c1.546 2.422 2.808 3.504 4.043 3.504.644 0 1.778-.283 1.805-1.546 0-2.911-7.961-.567-7.936-6.41 0-2.756 2.293-4.438 5.951-4.438 2.88.01 4.737 1.014 5.277 1.529"/></svg>
